communes/6622.svg

<?xml version="1.0" encoding="UTF-8" standalone="no"?>
<svg
   xmlns:i="http://ns.adobe.com/AdobeIllustrator/10.0/"
   xmlns:dc="http://purl.org/dc/elements/1.1/"
   xmlns:cc="http://web.resource.org/cc/"
   xmlns:rdf="http://www.w3.org/1999/02/22-rdf-syntax-ns#"
   xmlns:svg="http://www.w3.org/2000/svg"
   xmlns="http://www.w3.org/2000/svg"
   xmlns:xlink="http://www.w3.org/1999/xlink"
   xmlns:sodipodi="http://sodipodi.sourceforge.net/DTD/sodipodi-0.dtd"
   xmlns:inkscape="http://www.inkscape.org/namespaces/inkscape"
   height="763"
   width="603"
   version="1.0"
   id="svg20"
   sodipodi:version="0.32"
   inkscape:version="0.44"
   sodipodi:docname="Genthod-coat_of_arms.svg"
   sodipodi:docbase="C:\Documents and Settings\Steve\Bureau\Blason Villages Suisse pour Wikipédia (par Delta-9)\GE">
  <metadata
     id="metadata31">
    <rdf:RDF>
      <cc:Work
         rdf:about="">
        <dc:format>image/svg+xml</dc:format>
        <dc:type
           rdf:resource="http://purl.org/dc/dcmitype/StillImage" />
        <dc:date>07-AUG-2006</dc:date>
        <dc:creator>
          <cc:Agent>
            <dc:title>Jérôme BLUM (wagner51)</dc:title>
          </cc:Agent>
        </dc:creator>
        <cc:license
           rdf:resource="http://creativecommons.org/licenses/GPL/2.0/" />
        <dc:coverage />
        <dc:description>Gabarit pour le Projet:Blasons de WIkipédia</dc:description>
        <dc:subject>
          <rdf:Bag>
            <rdf:li>blason suisse modèle gabarit projet blasons</rdf:li>
          </rdf:Bag>
        </dc:subject>
        <dc:language>fr</dc:language>
        <dc:title>Gabrit d'un blason suisse</dc:title>
      </cc:Work>
      <cc:License
         rdf:about="http://creativecommons.org/licenses/GPL/2.0/">
        <cc:permits
           rdf:resource="http://web.resource.org/cc/Reproduction" />
        <cc:permits
           rdf:resource="http://web.resource.org/cc/Distribution" />
        <cc:requires
           rdf:resource="http://web.resource.org/cc/Notice" />
        <cc:permits
           rdf:resource="http://web.resource.org/cc/DerivativeWorks" />
        <cc:requires
           rdf:resource="http://web.resource.org/cc/ShareAlike" />
        <cc:requires
           rdf:resource="http://web.resource.org/cc/SourceCode" />
      </cc:License>
    </rdf:RDF>
  </metadata>
  <defs
     id="defs29"><linearGradient
   id="linearGradient2893">
  <stop
     style="stop-color:#ffffff;stop-opacity:0.3137255;"
     offset="0"
     id="stop2895" />
  <stop
     id="stop2897"
     offset="0.19"
     style="stop-color:#ffffff;stop-opacity:0.25098041;" />
  <stop
     style="stop-color:#6b6b6b;stop-opacity:0.1254902;"
     offset="0.60000002"
     id="stop2901" />
  <stop
     style="stop-color:#000000;stop-opacity:0.1254902;"
     offset="1"
     id="stop2899" />
</linearGradient>
<linearGradient
   id="linearGradient2955">
  <stop
     style="stop-color:white;stop-opacity:0;"
     offset="0"
     id="stop2965" />
  <stop
     style="stop-color:black;stop-opacity:0.64583331;"
     offset="1"
     id="stop2959" />
</linearGradient>
<radialGradient
   inkscape:collect="always"
   xlink:href="#linearGradient2893"
   id="radialGradient3236"
   gradientUnits="userSpaceOnUse"
   gradientTransform="matrix(1.215027,1.531577e-24,1.464684e-23,1.266667,-839.1924,-490.4894)"
   cx="858.04236"
   cy="579.93323"
   fx="858.04236"
   fy="579.93323"
   r="300" />

			<foreignObject
   requiredExtensions="http://ns.adobe.com/AdobeIllustrator/10.0/"
   x="0"
   y="0"
   width="1"
   height="1"
   id="foreignObject1950">
				<i:pgfRef
   xlink:href="#adobe_illustrator_pgf">
				</i:pgfRef>

			</foreignObject>

			
		
				
			
					
						
				</defs>
  <sodipodi:namedview
     inkscape:window-height="691"
     inkscape:window-width="939"
     inkscape:pageshadow="2"
     inkscape:pageopacity="0.0"
     guidetolerance="10.0"
     gridtolerance="10.0"
     objecttolerance="10.0"
     borderopacity="1.0"
     bordercolor="#666666"
     pagecolor="#ffffff"
     id="base"
     inkscape:zoom="0.4300232"
     inkscape:cx="159.98738"
     inkscape:cy="336.24121"
     inkscape:window-x="89"
     inkscape:window-y="42"
     inkscape:current-layer="layer2"
     showgrid="false"
     showguides="true"
     inkscape:guide-bbox="true" />
  <desc
     id="desc22">Coat of Arms of Canton of Freiburg (Fribourg)</desc>
  <g
     inkscape:groupmode="layer"
     id="layer1"
     inkscape:label="Fond écu"
     style="opacity:1"
     sodipodi:insensitive="true">
    <path
       id="path1899"
       d="M 1.5,1.49998 L 1.5,460.3679 C 1.5,626.6785 135.81456,761.5 301.49999,761.5 C 467.18543,761.5 601.5,626.6785 601.5,460.3679 L 601.5,1.49998 L 1.5,1.49998 z "
       style="fill:#e20909;fill-opacity:1" />
  </g>
  <g
     inkscape:groupmode="layer"
     id="layer2"
     inkscape:label="Meubles"
     style="opacity:1"
     sodipodi:insensitive="true">
    <path
       style="fill:#fcef3c;stroke:black;stroke-width:2.75;stroke-linecap:round;stroke-linejoin:round;stroke-miterlimit:4;stroke-dasharray:none;stroke-opacity:1"
       d="M 1.5,1.5 L 1.5,126.75 C 1.8557061,128.6507 2.0625,130.63646 2.0625,132.65625 C 2.0624999,134.66475 1.853916,136.61034 1.5,138.5 L 1.5,141.5 C 4.293114,140.30435 7.3015078,139.625 10.46875,139.625 C 24.432895,139.625 35.78125,152.38141 35.78125,168.09375 C 35.781252,171.52987 35.241741,174.82604 34.25,177.875 C 37.308449,176.39938 40.650519,175.5625 44.1875,175.5625 C 58.151646,175.5625 69.46875,188.32012 69.46875,204.03125 C 69.468746,207.82977 68.825957,211.43634 67.625,214.75 C 70.7713,213.16923 74.237497,212.28125 77.90625,212.28125 C 91.870391,212.28125 103.1875,225.00765 103.1875,240.71875 C 103.1875,244.27237 102.62013,247.67694 101.5625,250.8125 C 104.64868,249.30224 108.04413,248.46875 111.625,248.46875 C 125.58915,248.46875 136.90625,261.19515 136.90625,276.90625 C 136.90625,280.34608 136.36904,283.66606 135.375,286.71875 C 138.43343,285.24188 141.80561,284.40625 145.34375,284.40625 C 159.30786,284.40625 170.625,297.1639 170.625,312.875 C 170.625,316.40387 170.04376,319.75676 169,322.875 C 172.08043,321.37214 175.492,320.53125 179.0625,320.53125 C 193.02661,320.53126 204.34375,333.2889 204.34375,349 C 204.34374,364.71234 193.02662,377.4375 179.0625,377.4375 C 175.49083,377.4375 172.08043,376.5966 169,375.09375 C 170.04376,378.21201 170.625,381.59614 170.625,385.125 C 170.625,400.83738 159.30786,413.5625 145.34375,413.5625 C 141.80444,413.56251 138.43229,412.7581 135.375,411.28125 C 136.36904,414.33393 136.90625,417.6227 136.90625,421.0625 C 136.90625,436.77486 125.58915,449.5 111.625,449.5 C 108.04413,449.5 104.64868,448.66528 101.5625,447.15625 C 102.62013,450.29305 103.1875,453.69637 103.1875,457.25 C 103.1875,472.96234 91.870392,485.6875 77.90625,485.6875 C 74.237496,485.6875 70.770142,484.7995 67.625,483.21875 C 68.82596,486.5324 69.46875,490.16898 69.46875,493.96875 C 69.468746,509.68107 58.151645,522.40625 44.1875,522.40625 C 40.649364,522.40626 37.307293,521.60062 34.25,520.125 C 35.241741,523.17522 35.78125,526.47013 35.78125,529.90625 C 35.781251,542.93054 27.991205,553.90641 17.375,557.28125 C 32.121045,600.84598 56.550134,639.94295 88.0625,671.96875 C 91.48419,670.33643 95.28362,669.4375 99.3125,669.4375 C 102.32357,669.43752 105.23853,669.93619 107.9375,670.875 C 106.60709,667.6541 105.84375,664.12065 105.84375,660.40625 C 105.84375,645.46327 117.7544,633.34375 132.4375,633.34375 C 135.64851,633.34376 138.74338,633.93873 141.59375,635 C 140.21479,631.72717 139.4375,628.12865 139.4375,624.34375 C 139.4375,609.40076 151.34817,597.28125 166.03125,597.28125 C 169.5821,597.28125 172.96593,597.99611 176.0625,599.28125 C 174.58532,595.91439 173.75,592.17593 173.75,588.25 C 173.75,573.30699 185.66064,561.1875 200.34375,561.1875 C 203.66576,561.18748 206.8187,561.83699 209.75,562.96875 C 208.33868,559.66627 207.5625,556.01941 207.5625,552.1875 C 207.5625,537.24448 219.47316,525.125 234.15625,525.125 C 237.37075,525.12501 240.45981,525.71752 243.3125,526.78125 C 241.9324,523.50843 241.15625,519.8799 241.15625,516.09375 C 241.15625,501.15076 253.06691,489.03125 267.75,489.03125 C 271.04772,489.03125 274.17978,489.66433 277.09375,490.78125 C 275.68938,487.4849 274.90625,483.85203 274.90625,480.03125 C 274.90625,465.08828 286.8169,452.96875 301.5,452.96875 C 316.18195,452.96875 328.09375,465.08827 328.09375,480.03125 C 328.09376,483.85327 327.31064,487.48491 325.90625,490.78125 C 328.82021,489.66432 331.95227,489.03125 335.25,489.03125 C 349.93195,489.03125 361.84375,501.15073 361.84375,516.09375 C 361.84375,519.88116 361.06762,523.50965 359.6875,526.78125 C 362.54021,525.71753 365.62926,525.125 368.84375,525.125 C 383.52569,525.12501 395.4375,537.2445 395.4375,552.1875 C 395.4375,556.01939 394.66017,559.66624 393.25,562.96875 C 396.18015,561.83702 399.3354,561.1875 402.65625,561.1875 C 417.33818,561.18748 429.25,573.30701 429.25,588.25 C 429.25001,592.17591 428.4147,595.91565 426.9375,599.28125 C 430.03407,597.9961 433.4179,597.28125 436.96875,597.28125 C 451.65069,597.28125 463.5625,609.40073 463.5625,624.34375 C 463.5625,628.12991 462.7852,631.72838 461.40625,635 C 464.25548,633.93874 467.35147,633.34375 470.5625,633.34375 C 485.24558,633.34376 497.15625,645.46325 497.15625,660.40625 C 497.15626,664.12067 496.39176,667.65288 495.0625,670.875 C 497.7603,669.93617 500.67643,669.4375 503.6875,669.4375 C 507.71638,669.43751 511.51581,670.33643 514.9375,671.96875 C 546.44987,639.94295 570.87895,600.84597 585.625,557.28125 C 575.00878,553.90642 567.21875,542.93057 567.21875,529.90625 C 567.21877,526.47018 567.75826,523.17521 568.75,520.125 C 565.69153,521.60063 562.34947,522.40625 558.8125,522.40625 C 544.84836,522.40628 533.53125,509.68112 533.53125,493.96875 C 533.53125,490.17022 534.17403,486.53241 535.375,483.21875 C 532.22868,484.79952 528.76252,485.6875 525.09375,485.6875 C 511.1296,485.68749 499.8125,472.96236 499.8125,457.25 C 499.81249,453.6964 500.37988,450.29303 501.4375,447.15625 C 498.35133,448.6665 494.9559,449.5 491.375,449.5 C 477.41084,449.50001 466.09375,436.77484 466.09375,421.0625 C 466.09374,417.62267 466.63093,414.33394 467.625,411.28125 C 464.56655,412.75811 461.1944,413.5625 457.65625,413.5625 C 443.69211,413.56249 432.375,400.83733 432.375,385.125 C 432.375,381.59614 432.95624,378.21198 434,375.09375 C 430.91958,376.59659 427.508,377.4375 423.9375,377.4375 C 409.97335,377.43751 398.65625,364.71233 398.65625,349 C 398.65626,333.28885 409.97335,320.53125 423.9375,320.53125 C 427.50915,320.53124 430.91959,321.37219 434,322.875 C 432.95623,319.75681 432.375,316.40388 432.375,312.875 C 432.375,297.16387 443.6921,284.40625 457.65625,284.40625 C 461.19555,284.40626 464.5677,285.24191 467.625,286.71875 C 466.63094,283.66608 466.09375,280.34608 466.09375,276.90625 C 466.09374,261.19513 477.41085,248.46875 491.375,248.46875 C 494.95589,248.46876 498.35132,249.30348 501.4375,250.8125 C 500.37989,247.67694 499.8125,244.27235 499.8125,240.71875 C 499.81249,225.00763 511.1296,212.28125 525.09375,212.28125 C 528.76252,212.28125 532.22984,213.16924 535.375,214.75 C 534.17403,211.43635 533.53125,207.79976 533.53125,204 C 533.53125,188.28889 544.84834,175.5625 558.8125,175.5625 C 562.35065,175.5625 565.69272,176.39938 568.75,177.875 C 567.75825,174.82605 567.21875,171.52988 567.21875,168.09375 C 567.21877,152.3814 578.53584,139.625 592.5,139.625 C 595.66721,139.625 598.70618,140.30435 601.5,141.5 L 601.5,138.5 C 601.14608,136.61034 600.9375,134.66477 600.9375,132.65625 C 600.9375,130.63646 601.14429,128.6507 601.5,126.75 L 601.5,1.5 L 530.25,1.5 C 530.25,16.442997 518.37061,28.5625 503.6875,28.5625 C 500.67642,28.562501 497.76033,28.032556 495.0625,27.09375 C 496.39176,30.314637 497.15625,33.848087 497.15625,37.5625 C 497.15624,52.505499 485.24559,64.625 470.5625,64.625 C 467.35146,64.625001 464.25549,64.061264 461.40625,63 C 462.78523,66.272832 463.5625,69.871337 463.5625,73.65625 C 463.56251,88.599261 451.65069,100.71875 436.96875,100.71875 C 433.41907,100.71875 430.03408,100.00389 426.9375,98.71875 C 428.41469,102.0856 429.25,105.79282 429.25,109.71875 C 429.24999,124.66173 417.33819,136.78125 402.65625,136.78125 C 399.3354,136.78125 396.18015,136.16302 393.25,135.03125 C 394.66132,138.33376 395.4375,141.98059 395.4375,145.8125 C 395.43749,160.7555 383.52571,172.875 368.84375,172.875 C 365.62927,172.875 362.54021,172.28249 359.6875,171.21875 C 361.0676,174.49159 361.84375,178.08886 361.84375,181.875 C 361.84376,196.81801 349.93196,208.9375 335.25,208.9375 C 331.95229,208.93749 328.82022,208.33567 325.90625,207.21875 C 327.31064,210.51509 328.09375,214.14796 328.09375,217.96875 C 328.09376,232.91174 316.18194,245 301.5,245 C 286.81687,245 274.90625,232.91174 274.90625,217.96875 C 274.90624,214.14673 275.68938,210.51509 277.09375,207.21875 C 274.1798,208.33567 271.04772,208.9375 267.75,208.9375 C 253.06692,208.93749 241.15625,196.81801 241.15625,181.875 C 241.15625,178.08762 241.93238,174.49036 243.3125,171.21875 C 240.4598,172.28249 237.37189,172.875 234.15625,172.875 C 219.47313,172.875 207.5625,160.7555 207.5625,145.8125 C 207.5625,141.98059 208.33867,138.33376 209.75,135.03125 C 206.81868,136.16302 203.66574,136.78125 200.34375,136.78125 C 185.66065,136.78125 173.75,124.66173 173.75,109.71875 C 173.75,105.79282 174.58414,102.08436 176.0625,98.71875 C 172.96592,100.00389 169.5821,100.71875 166.03125,100.71875 C 151.34817,100.71875 139.4375,88.599258 139.4375,73.65625 C 139.4375,69.870112 140.2148,66.271601 141.59375,63 C 138.74454,64.061263 135.64967,64.625 132.4375,64.625 C 117.75439,64.625001 105.84375,52.505497 105.84375,37.5625 C 105.84375,33.848089 106.60593,30.315876 107.9375,27.09375 C 105.23854,28.032555 102.32355,28.5625 99.3125,28.5625 C 84.629398,28.562501 72.75,16.442997 72.75,1.5 L 1.5,1.5 z "
       id="path1955" />
  </g>
  <g
     inkscape:groupmode="layer"
     id="layer3"
     inkscape:label="Reflet final"
     style="display:inline"
     sodipodi:insensitive="true">
    <path
       style="fill:url(#radialGradient3236);fill-opacity:1"
       d="M 1.5,1.5 L 1.5,460.3679 C 1.5,626.67854 135.81454,761.5 301.49993,761.5 C 467.1854,761.5 601.5,626.67854 601.5,460.3679 L 601.5,1.5 L 1.5,1.5 z "
       id="path2346" />
  </g>
  <g
     inkscape:groupmode="layer"
     id="layer4"
     inkscape:label="Contour final"
     style="display:inline"
     sodipodi:insensitive="true">
    <path
       style="fill:none;fill-opacity:1;stroke:#000000;stroke-width:3;stroke-miterlimit:4;stroke-dasharray:none;stroke-opacity:1"
       d="M 1.5,1.5 L 1.5,460.36794 C 1.5,626.67854 135.81454,761.5 301.49993,761.5 C 467.1854,761.5 601.5,626.67854 601.5,460.36794 L 601.5,1.5 L 1.5,1.5 z "
       id="path3239" />
  </g>
</svg>

<?xml version="1.0" encoding="UTF-8"?>
<svg version="1.0" viewBox="0 0 603 763" xmlns="http://www.w3.org/2000/svg" xmlns:cc="http://web.resource.org/cc/" xmlns:dc="http://purl.org/dc/elements/1.1/" xmlns:rdf="http://www.w3.org/1999/02/22-rdf-syntax-ns#" xmlns:xlink="http://www.w3.org/1999/xlink">
<metadata>
<rdf:RDF>
<cc:Work rdf:about="">
<dc:format>image/svg+xml</dc:format>
<dc:type rdf:resource="http://purl.org/dc/dcmitype/StillImage"/>
<dc:date>07-AUG-2006</dc:date>
<dc:creator>
<cc:Agent>
<dc:title>Jérôme BLUM (wagner51)</dc:title>
</cc:Agent>
</dc:creator>
<cc:license rdf:resource="http://creativecommons.org/licenses/GPL/2.0/"/>
<dc:coverage/>
<dc:description>Gabarit pour le Projet:Blasons de WIkipédia</dc:description>
<dc:subject>
<rdf:Bag>
<rdf:li>blason suisse modèle gabarit projet blasons</rdf:li>
</rdf:Bag>
</dc:subject>
<dc:language>fr</dc:language>
<dc:title>Gabrit d'un blason suisse</dc:title>
</cc:Work>
<cc:License rdf:about="http://creativecommons.org/licenses/GPL/2.0/">
<cc:permits rdf:resource="http://web.resource.org/cc/Reproduction"/>
<cc:permits rdf:resource="http://web.resource.org/cc/Distribution"/>
<cc:requires rdf:resource="http://web.resource.org/cc/Notice"/>
<cc:permits rdf:resource="http://web.resource.org/cc/DerivativeWorks"/>
<cc:requires rdf:resource="http://web.resource.org/cc/ShareAlike"/>
<cc:requires rdf:resource="http://web.resource.org/cc/SourceCode"/>
</cc:License>
</rdf:RDF>
</metadata>
<defs>
<radialGradient id="a" cx="858.04" cy="579.93" r="300" gradientTransform="matrix(1.215 1.5316e-24 1.4647e-23 1.2667 -839.19 -490.49)" gradientUnits="userSpaceOnUse">
<stop stop-color="#fff" stop-opacity=".31373" offset="0"/>
<stop stop-color="#fff" stop-opacity=".25098" offset=".19"/>
<stop stop-color="#6b6b6b" stop-opacity=".12549" offset=".6"/>
<stop stop-opacity=".12549" offset="1"/>
</radialGradient>
</defs>
<desc>Coat of Arms of Canton of Freiburg (Fribourg)</desc>
<g>
<path d="m1.5 1.5v458.87c0 166.31 134.31 301.13 300 301.13 165.69 0 300-134.82 300-301.13v-458.87h-600z" fill="#e20909"/>
<path d="m1.5 1.5v125.25c0.35571 1.9007 0.5625 3.8865 0.5625 5.9062-1e-7 2.0085-0.20858 3.9541-0.5625 5.8438v3c2.7931-1.1956 5.8015-1.875 8.9688-1.875 13.964 0 25.312 12.756 25.312 28.469 2e-6 3.4361-0.53951 6.7323-1.5312 9.7812 3.0584-1.4756 6.4005-2.3125 9.9375-2.3125 13.964 0 25.281 12.758 25.281 28.469-4e-6 3.7985-0.64279 7.4051-1.8438 10.719 3.1463-1.5808 6.6125-2.4688 10.281-2.4688 13.964 0 25.281 12.726 25.281 28.438 0 3.5536-0.56737 6.9582-1.625 10.094 3.0862-1.5103 6.4816-2.3438 10.062-2.3438 13.964 0 25.281 12.726 25.281 28.438 0 3.4398-0.53721 6.7598-1.5312 9.8125 3.0584-1.4769 6.4306-2.3125 9.9688-2.3125 13.964 0 25.281 12.758 25.281 28.469 0 3.5289-0.58124 6.8818-1.625 10 3.0804-1.5029 6.492-2.3438 10.062-2.3438 13.964 1e-5 25.281 12.758 25.281 28.469-1e-5 15.712-11.317 28.438-25.281 28.438-3.5717 0-6.9821-0.8409-10.062-2.3438 1.0438 3.1183 1.625 6.5024 1.625 10.031 0 15.712-11.317 28.438-25.281 28.438-3.5393 1e-5 -6.9115-0.8044-9.9688-2.2812 0.99404 3.0527 1.5312 6.3414 1.5312 9.7812 0 15.712-11.317 28.438-25.281 28.438-3.5809 0-6.9763-0.83472-10.062-2.3438 1.0576 3.1368 1.625 6.5401 1.625 10.094 0 15.712-11.317 28.438-25.281 28.438-3.6688 0-7.1361-0.888-10.281-2.4688 1.201 3.3136 1.8438 6.9502 1.8438 10.75-4e-6 15.712-11.317 28.438-25.281 28.438-3.5381 1e-5 -6.8802-0.80563-9.9375-2.2812 0.99174 3.0502 1.5312 6.3451 1.5312 9.7812 1e-6 13.024-7.79 24-18.406 27.375 14.746 43.565 39.175 82.662 70.688 114.69 3.4217-1.6323 7.2211-2.5312 11.25-2.5312 3.0111 2e-5 5.926 0.49869 8.625 1.4375-1.3304-3.2209-2.0938-6.7544-2.0938-10.469 0-14.943 11.911-27.062 26.594-27.062 3.211 1e-5 6.3059 0.59498 9.1562 1.6562-1.379-3.2728-2.1562-6.8714-2.1562-10.656 0-14.943 11.911-27.062 26.594-27.062 3.5508 0 6.9347 0.71486 10.031 2-1.4772-3.3669-2.3125-7.1053-2.3125-11.031 0-14.943 11.911-27.062 26.594-27.062 3.322-2e-5 6.475 0.64949 9.4062 1.7812-1.4113-3.3025-2.1875-6.9493-2.1875-10.781 0-14.943 11.911-27.062 26.594-27.062 3.2145 1e-5 6.3036 0.59252 9.1562 1.6562-1.3801-3.2728-2.1562-6.9014-2.1562-10.688 0-14.943 11.911-27.062 26.594-27.062 3.2977 0 6.4298 0.63308 9.3438 1.75-1.4044-3.2964-2.1875-6.9292-2.1875-10.75 0-14.943 11.911-27.062 26.594-27.062 14.682 0 26.594 12.12 26.594 27.062 1e-5 3.822-0.78311 7.4537-2.1875 10.75 2.914-1.1169 6.046-1.75 9.3438-1.75 14.682 0 26.594 12.119 26.594 27.062 0 3.7874-0.77613 7.4159-2.1562 10.688 2.8527-1.0637 5.9418-1.6562 9.1562-1.6562 14.682 1e-5 26.594 12.12 26.594 27.062 0 3.8319-0.77733 7.4787-2.1875 10.781 2.9302-1.1317 6.0854-1.7812 9.4062-1.7812 14.682-2e-5 26.594 12.12 26.594 27.062 1e-5 3.9259-0.8353 7.6656-2.3125 11.031 3.0966-1.2852 6.4804-2 10.031-2 14.682 0 26.594 12.119 26.594 27.062 0 3.7862-0.7773 7.3846-2.1562 10.656 2.8492-1.0613 5.9452-1.6562 9.1562-1.6562 14.683 1e-5 26.594 12.12 26.594 27.062 1e-5 3.7144-0.76449 7.2466-2.0938 10.469 2.6978-0.93883 5.6139-1.4375 8.625-1.4375 4.0289 1e-5 7.8283 0.89893 11.25 2.5312 31.512-32.026 55.941-71.123 70.688-114.69-10.616-3.3748-18.406-14.351-18.406-27.375 2e-5 -3.4361 0.53951-6.731 1.5312-9.7812-3.0585 1.4756-6.4005 2.2812-9.9375 2.2812-13.964 3e-5 -25.281-12.725-25.281-28.438 0-3.7985 0.64278-7.4363 1.8438-10.75-3.1463 1.5808-6.6125 2.4688-10.281 2.4688-13.964-1e-5 -25.281-12.725-25.281-28.438-1e-5 -3.5536 0.56738-6.957 1.625-10.094-3.0862 1.5102-6.4816 2.3438-10.062 2.3438-13.964 1e-5 -25.281-12.725-25.281-28.438-1e-5 -3.4398 0.53718-6.7286 1.5312-9.7812-3.0584 1.4769-6.4306 2.2812-9.9688 2.2812-13.964-1e-5 -25.281-12.725-25.281-28.438 0-3.5289 0.58124-6.913 1.625-10.031-3.0804 1.5028-6.492 2.3438-10.062 2.3438-13.964 1e-5 -25.281-12.725-25.281-28.438 1e-5 -15.711 11.317-28.469 25.281-28.469 3.5716-1e-5 6.9821 0.84094 10.062 2.3438-1.0438-3.1182-1.625-6.4711-1.625-10 0-15.711 11.317-28.469 25.281-28.469 3.5393 1e-5 6.9114 0.83566 9.9688 2.3125-0.99406-3.0527-1.5312-6.3727-1.5312-9.8125-1e-5 -15.711 11.317-28.438 25.281-28.438 3.5809 1e-5 6.9763 0.83473 10.062 2.3438-1.0576-3.1356-1.625-6.5402-1.625-10.094-1e-5 -15.711 11.317-28.438 25.281-28.438 3.6688 0 7.1361 0.88799 10.281 2.4688-1.201-3.3136-1.8438-6.9502-1.8438-10.75 0-15.711 11.317-28.438 25.281-28.438 3.5382 0 6.8802 0.83688 9.9375 2.3125-0.99175-3.049-1.5312-6.3451-1.5312-9.7812 2e-5 -15.712 11.317-28.469 25.281-28.469 3.1672 0 6.2062 0.67935 9 1.875v-3c-0.35392-1.8897-0.5625-3.8352-0.5625-5.8438 0-2.0198 0.20679-4.0056 0.5625-5.9062v-125.25h-71.25c0 14.943-11.879 27.062-26.562 27.062-3.0111 1e-6 -5.9272-0.52994-8.625-1.4688 1.3293 3.2209 2.0938 6.7543 2.0938 10.469-1e-5 14.943-11.911 27.062-26.594 27.062-3.211 1e-6 -6.307-0.56374-9.1562-1.625 1.379 3.2728 2.1562 6.8713 2.1562 10.656 1e-5 14.943-11.912 27.062-26.594 27.062-3.5497 0-6.9347-0.71486-10.031-2 1.4772 3.3668 2.3125 7.0741 2.3125 11-1e-5 14.943-11.912 27.062-26.594 27.062-3.3208 0-6.4761-0.61823-9.4062-1.75 1.4113 3.3025 2.1875 6.9493 2.1875 10.781-1e-5 14.943-11.912 27.062-26.594 27.062-3.2145 0-6.3035-0.59251-9.1562-1.6562 1.3801 3.2728 2.1562 6.8701 2.1562 10.656 1e-5 14.943-11.912 27.062-26.594 27.062-3.2977-1e-5 -6.4298-0.60183-9.3438-1.7188 1.4044 3.2963 2.1875 6.9292 2.1875 10.75 1e-5 14.943-11.912 27.031-26.594 27.031-14.683 0-26.594-12.088-26.594-27.031-1e-5 -3.822 0.78313-7.4537 2.1875-10.75-2.914 1.1169-6.046 1.7188-9.3438 1.7188-14.683-1e-5 -26.594-12.119-26.594-27.062 0-3.7874 0.77613-7.3846 2.1562-10.656-2.8527 1.0637-5.9406 1.6562-9.1562 1.6562-14.683 0-26.594-12.12-26.594-27.062 0-3.8319 0.77617-7.4787 2.1875-10.781-2.9313 1.1318-6.0843 1.75-9.4062 1.75-14.683 0-26.594-12.12-26.594-27.062 0-3.9259 0.83414-7.6344 2.3125-11-3.0966 1.2851-6.4804 2-10.031 2-14.683 0-26.594-12.119-26.594-27.062 0-3.7861 0.7773-7.3846 2.1562-10.656-2.8492 1.0613-5.9441 1.625-9.1562 1.625-14.683 1e-6 -26.594-12.12-26.594-27.062 0-3.7144 0.76218-7.2466 2.0938-10.469-2.699 0.9388-5.614 1.4688-8.625 1.4688-14.683 1e-6 -26.562-12.12-26.562-27.062h-71.25z" fill="#fcef3c" stroke="#000" stroke-linecap="round" stroke-linejoin="round" stroke-width="2.75"/>
</g>
<g>
<path d="m1.5 1.5v458.87c0 166.31 134.31 301.13 300 301.13 165.69 0 300-134.82 300-301.13v-458.87h-600z" fill="url(#a)"/>
<path d="m1.5 1.5v458.87c0 166.31 134.31 301.13 300 301.13 165.69 0 300-134.82 300-301.13v-458.87h-600z" fill="none" stroke="#000" stroke-width="3"/>
</g>
</svg>
